svgs/sharp-light/computer-classic.svg

<svg xmlns="http://www.w3.org/2000/svg" viewBox="0 0 448 512"><!--! Font Awesome Pro 6.6.0 by @fontawesome - https://fontawesome.com License - https://fontawesome.com/license (Commercial License) Copyright 2024 Fonticons, Inc. --><path d="M416 32l0 368L32 400 32 32l384 0zM32 0L0 0 0 32 0 400l0 32 32 0 0 48 0 32 32 0 320 0 32 0 0-32 0-48 32 0 0-32 0-368 0-32L416 0 32 0zM64 432l320 0 0 48L64 480l0-48zM352 96l0 128L96 224 96 96l256 0zM96 64L64 64l0 32 0 128 0 32 32 0 256 0 32 0 0-32 0-128 0-32-32 0L96 64zM224 320l0 32 16 0 128 0 16 0 0-32-16 0-128 0-16 0zM96 360a24 24 0 1 0 0-48 24 24 0 1 0 0 48z"/></svg>

<svg xmlns="http://www.w3.org/2000/svg" viewBox="0 0 448 512"><!--! Font Awesome Pro 6.4.0 by @fontawesome - https://fontawesome.com License - https://fontawesome.com/license (Commercial License) Copyright 2023 Fonticons, Inc. --><path d="M416 32V400H32V32H416zM32 0H0V32 400v32H32v48 32H64 384h32V480 432h32V400 32 0H416 32zM64 432H384v48H64V432zM352 96V224H96V96H352zM96 64H64V96 224v32H96 352h32V224 96 64H352 96zM224 320v32h16H368h16V320H368 240 224zM96 360a24 24 0 1 0 0-48 24 24 0 1 0 0 48z"/></svg>
